packages/assets/static/images/icons/bold/scroll--bold.svg

<svg width="24" height="24" viewBox="0 0 24 24" xmlns="http://www.w3.org/2000/svg">
<path d="M9.125 8.625C9.125 8.32663 9.24353 8.04048 9.4545 7.8295C9.66548 7.61853 9.95163 7.5 10.25 7.5H15.875C16.1734 7.5 16.4595 7.61853 16.6705 7.8295C16.8815 8.04048 17 8.32663 17 8.625C17 8.92337 16.8815 9.20952 16.6705 9.4205C16.4595 9.63147 16.1734 9.75 15.875 9.75H10.25C9.95163 9.75 9.66548 9.63147 9.4545 9.4205C9.24353 9.20952 9.125 8.92337 9.125 8.625ZM10.25 13.5H15.875C16.1734 13.5 16.4595 13.3815 16.6705 13.1705C16.8815 12.9595 17 12.6734 17 12.375C17 12.0766 16.8815 11.7905 16.6705 11.5795C16.4595 11.3685 16.1734 11.25 15.875 11.25H10.25C9.95163 11.25 9.66548 11.3685 9.4545 11.5795C9.24353 11.7905 9.125 12.0766 9.125 12.375C9.125 12.6734 9.24353 12.9595 9.4545 13.1705C9.66548 13.3815 9.95163 13.5 10.25 13.5ZM22.625 18C22.625 18.8951 22.2694 19.7535 21.6365 20.3865C21.0035 21.0194 20.1451 21.375 19.25 21.375H8.75C7.85489 21.375 6.99645 21.0194 6.36351 20.3865C5.73058 19.7535 5.375 18.8951 5.375 18V6C5.375 5.70163 5.25647 5.41548 5.0455 5.2045C4.83452 4.99353 4.54837 4.875 4.25 4.875C3.95163 4.875 3.66548 4.99353 3.4545 5.2045C3.24353 5.41548 3.125 5.70163 3.125 6C3.125 6.34969 3.43906 6.61031 3.44187 6.61313L3.425 6.6C3.54881 6.6864 3.65396 6.79683 3.73419 6.92471C3.81442 7.0526 3.86809 7.19533 3.89201 7.34439C3.91592 7.49346 3.90958 7.64581 3.87338 7.79238C3.83717 7.93894 3.77184 8.07672 3.68126 8.19751C3.59069 8.31829 3.47673 8.41961 3.34618 8.49543C3.21563 8.57124 3.07115 8.62001 2.92136 8.63882C2.77156 8.65762 2.61951 8.64609 2.47427 8.6049C2.32903 8.56371 2.19356 8.49371 2.07594 8.39906C1.95219 8.30812 0.875 7.45781 0.875 6C0.875 5.10489 1.23058 4.24645 1.86351 3.61351C2.49645 2.98058 3.35489 2.625 4.25 2.625H17C17.8951 2.625 18.7535 2.98058 19.3865 3.61351C20.0194 4.24645 20.375 5.10489 20.375 6V15.375H20.75C20.9934 15.375 21.2303 15.4539 21.425 15.6C21.5478 15.6919 22.625 16.5422 22.625 18ZM9.18313 16.1437C9.25786 15.9199 9.40109 15.7252 9.59255 15.5873C9.78401 15.4493 10.014 15.375 10.25 15.375H18.125V6C18.125 5.70163 18.0065 5.41548 17.7955 5.2045C17.5845 4.99353 17.2984 4.875 17 4.875H7.43188C7.55987 5.23626 7.62519 5.61674 7.625 6V18C7.625 18.2984 7.74353 18.5845 7.9545 18.7955C8.16548 19.0065 8.45163 19.125 8.75 19.125C9.04837 19.125 9.33452 19.0065 9.5455 18.7955C9.75647 18.5845 9.875 18.2984 9.875 18C9.875 17.6644 9.57781 17.4019 9.575 17.4C9.38608 17.2582 9.24656 17.0606 9.17622 16.8351C9.10589 16.6097 9.1083 16.3678 9.18313 16.1437ZM20.375 18C20.3717 17.8667 20.3314 17.7368 20.2587 17.625H12.1025C12.1189 17.7493 12.127 17.8746 12.1269 18C12.1271 18.3833 12.0618 18.7638 11.9338 19.125H19.25C19.5484 19.125 19.8345 19.0065 20.0455 18.7955C20.2565 18.5845 20.375 18.2984 20.375 18Z"/>
</svg>

<svg viewBox="0 0 24 24" xmlns="http://www.w3.org/2000/svg" aria-hidden="true" fill="currentColor"><path d="M9.125 8.625A1.125 1.125 0 0 1 10.25 7.5h5.625a1.125 1.125 0 0 1 0 2.25H10.25a1.125 1.125 0 0 1-1.125-1.125M10.25 13.5h5.625a1.125 1.125 0 1 0 0-2.25H10.25a1.125 1.125 0 1 0 0 2.25M22.625 18a3.375 3.375 0 0 1-3.375 3.375H8.75A3.375 3.375 0 0 1 5.375 18V6a1.125 1.125 0 0 0-2.25 0c0 .35.314.61.317.613L3.425 6.6a1.125 1.125 0 1 1-1.35 1.8c-.123-.092-1.2-.942-1.2-2.4A3.375 3.375 0 0 1 4.25 2.625H17A3.375 3.375 0 0 1 20.375 6v9.375h.375c.243 0 .48.079.675.225.123.092 1.2.942 1.2 2.4M9.183 16.144a1.125 1.125 0 0 1 1.067-.769h7.875V6A1.125 1.125 0 0 0 17 4.875H7.432c.128.361.193.742.193 1.125v12a1.125 1.125 0 0 0 2.25 0c0-.336-.297-.598-.3-.6a1.125 1.125 0 0 1-.392-1.256M20.375 18a.7.7 0 0 0-.116-.375h-8.157q.025.187.025.375c0 .383-.065.764-.193 1.125h7.316A1.125 1.125 0 0 0 20.375 18"/></svg>
